src/assets/svg/logo.svg

<svg width="96" height="40" viewBox="0 0 96 40" fill="none" xmlns="http://www.w3.org/2000/svg">
<path d="M52.3304 16.4794L44.8029 35.1788L36.0883 13.5305C36.0242 13.3718 35.9398 13.2279 35.8391 13.1022C33.1851 5.79164 26.4338 0.596893 18.5228 0.596893C8.29247 0.595828 0 9.28073 0 19.9941C0 30.7075 8.29247 39.3924 18.5217 39.3924C24.7309 39.3924 30.226 36.1909 33.5859 31.2796V39.3924H37.1889V34.0623L33.3062 24.4164C31.4843 31.1507 25.5712 36.0844 18.5573 36.0844C10.0919 36.0844 3.22971 28.8974 3.22971 20.0314C3.22971 11.1654 10.0919 3.97838 18.5573 3.97838C25.0402 3.97838 30.583 8.19299 32.824 14.1495C32.8271 14.1559 32.8301 14.1623 32.8332 14.1686L42.9943 39.4094H46.6146V39.4062L54.4941 19.8332L52.3315 16.4805L52.3304 16.4794Z" fill="#87BF8F"/>
<path d="M80.2846 4.38839C84.613 4.38839 88.51 6.32097 91.2331 9.40628L76.4782 21.1328L78.4343 23.8335L88.9586 15.4693H88.9575L89.2586 15.2307L93.1597 12.1304C93.1638 12.1379 93.1679 12.1453 93.1719 12.1528L95.9998 9.92831C92.76 4.39691 86.9333 0.706467 80.2836 0.706467C72.7398 0.706467 66.257 5.45482 63.4067 12.253L65.7504 16.5048C67.2671 9.56609 73.1976 4.38945 80.2836 4.38945L80.2846 4.38839Z" fill="#87BF8F"/>
<path d="M92.8009 28.4848C90.1439 32.7761 85.5318 35.6164 80.2849 35.6164C75.6718 35.6164 71.5489 33.4217 68.8146 29.9753C68.6315 29.7377 67.2247 27.9052 66.0548 26.1879L60.0644 15.3211L57.8946 11.3845L62.2585 0.545471H58.6728L54.2509 11.5294L54.2407 11.5358L54.2448 11.5444L54.2417 11.5507L54.2499 11.5539L63.0825 27.576L64.1903 29.4298C64.2055 29.4479 64.2187 29.4671 64.234 29.4841C67.3966 35.3437 73.3993 39.3004 80.2849 39.3004C86.5226 39.3004 92.0339 36.0521 95.3674 31.0854L92.8009 28.4859V28.4848Z" fill="#87BF8F"/>
</svg>

<svg xmlns="http://www.w3.org/2000/svg" width="96" height="40" fill="#87bf8f" xmlns:v="https://vecta.io/nano"><path d="M52.33 16.479l-7.527 18.699-8.715-21.648c-.064-.159-.148-.303-.249-.428C33.185 5.792 26.434.597 18.523.597 8.292.596 0 9.281 0 19.994s8.292 19.398 18.522 19.398c6.209 0 11.704-3.202 15.064-8.113v8.113h3.603v-5.33l-3.883-9.646c-1.822 6.734-7.735 11.668-14.749 11.668-8.465 0-15.328-7.187-15.328-16.053S10.092 3.978 18.557 3.978c6.483 0 12.026 4.215 14.267 10.171l.009.019 10.161 25.241h3.62v-.003l7.88-19.573-2.163-3.353-.001-.001zM80.285 4.388c4.328 0 8.225 1.933 10.948 5.018L76.478 21.133l1.956 2.701 10.524-8.364h-.001l.301-.239 3.901-3.1.012.022L96 9.928C92.76 4.397 86.933.706 80.284.706c-7.544 0-14.027 4.748-16.877 11.547l2.344 4.252C67.268 9.566 73.198 4.39 80.284 4.39l.001-.001zm12.516 24.097c-2.657 4.291-7.269 7.132-12.516 7.132-4.613 0-8.736-2.195-11.47-5.641-.183-.238-1.59-2.07-2.76-3.787l-5.99-10.867-2.17-3.937L62.259.545h-3.586l-4.422 10.984-.01.006.004.009-.003.006.008.003 8.833 16.022 1.108 1.854c.015.018.028.037.044.054 3.163 5.86 9.165 9.816 16.051 9.816 6.238 0 11.749-3.248 15.083-8.215l-2.567-2.599v-.001z"/></svg>
